X: 1
T:The Fairy Dance
M:C
L:1/8
Q:80
C:
S:Reel
K:HP
|: e|
{g}f2{g}f3/2d/2{g}f2{g}f3/2d/2|
{g}f2{g}f3/2d/2{g}B3/2c/2{g}d3/2e/2|
{g}f2{g}f3/2d/2{a}g3/2f/2{g}e3/2d/2|1  !
{g}c/2{d}A3/2{g}B3/2c/2{g}d3/2c/2{g}d3/2e/2:|
{g}f2{g}f3/2d/2{g}f2{g}f3/2d/2|
{g}f2{g}f3/2d/2{g}B3/2c/2{g}d3/2e/2|  !
{g}f2{g}f3/2d/2{a}g3/2f/2{g}e3/2d/2:|2
{g}c/2{d}A3/2{g}B3/2c/2d3/2e/2{g}f3/2g/2|] |:
a2{GdG}af{g}d3/2f/2a3/2f/2|  !
{a}g2{GdG}ge{g}c/2e3/2a3/2g/2|
{fg}f2{g}d3/2f/2{a}g3/2f/2{g}e3/2d/2|
{g}c/2{d}A3/2{g}B3/2c/2d3/2e/2{g}f3/2g/2a2{GdG}af{g}d3/2f/2a3/2f/2|  !
{a}g2{GdG}ge{g}c/2e3/2a3/2g/2|
{fg}f2{g}d3/2f/2{a}g3/2f/2{g}e3/2d/2|1
{g}c/2{d}A3/2{g}B3/2c/2{g}d3/2c/2{g}dea2{GdG}af{g}d3/2f/2a3/2f/2|  !
{a}g2{GdG}ge{g}c/2e3/2a3/2g/2|
{fg}f2{g}d3/2f/2{a}g3/2f/2{g}e3/2d/2|
{g}c/2{d}A3/2{g}B3/2c/2d3/2e/2{g}f3/2g/2|]  !
a2{GdG}af{g}d3/2f/2a3/2f/2|
{a}g2{GdG}ge{g}c/2e3/2a3/2g/2|
{fg}f2{g}d3/2f/2{a}g3/2f/2{g}e3/2d/2|  !
{g}c/2{d}A3/2{g}B3/2c/2{Gdc}d2{g}d|]
